X:2
T:Land of the Silver Birch
C:Traditional Canadian
M:4/4
L:1/8
Q:1/4=80
K:Cmaj
%
%%MIDI program 1       73 piccolo
%
D2 DD AA A2| D2 DD A2 A2 | d2 cd cA F2|
w: Land of the sil-ver birch, home of the bea-ver, where still the migh-ty moose
G F2 G A4| d2 cd cA F2 | G F2 G AF D2 |
w: wan-ders at will; Blue lake and roc-ky shore, I will re-turn once more;
DD/D/ DF DD/D/ DF|D D/D/ DF D2 z2|]
w: bm-di-di ah-da, bm-di-di ah-da, bm-di-di ah-da bm.


